X:126
T:Can you not hit it, my good man?
M:6/8
L:1/8
K:D
%%score 1 2
V:1 clef-treble
V:2 clef-bass octave=-1
V:1
"_ROSALINE.--"[Fd][Gd][Ad][Bd]2[GB]|[Ec]2[Fd]e2c&x3G3|dddd2c&F2BA3|[GB][FA][EG][DF]3||
w:Thou canst not hit it, hit it, hit it, Thou canst not hit it, my good* man. 
V:2
DEFG2G,|A,6|B,A,G,F,3|G,2A,B,3||
V:1
"_BOYET--"(FG)AB2A&D6|B2AB2E&D3-D2C|(FG)A B/B3/A&D6|(GF)ED3&D2Cx3||
w:An* I can-not, can-not, can-not, An* I can-not, an-o-*ther can.
V:2
DEFG2F|G2FG2A|DEFG2F|E2AD3||

